Newaita-dark/apps/16/com.github.georgekap1an.chores.svg

<svg height="16" viewBox="0 0 16 16" width="16" xmlns="http://www.w3.org/2000/svg" xmlns:xlink="http://www.w3.org/1999/xlink"><linearGradient id="a" gradientUnits="userSpaceOnUse" x1="7.93826" x2="7.93826" y1="14.0169685" y2="14.67849050002"><stop offset="0" stop-opacity=".27451"/><stop offset="1" stop-opacity="0"/></linearGradient><linearGradient id="b"><stop offset="0" stop-opacity=".313726"/><stop offset=".222222" stop-opacity=".27451"/><stop offset="1" stop-opacity="0"/></linearGradient><radialGradient id="c" cx="450.908936" cy="189.579361" gradientTransform="matrix(.00000009 -.0390662 -.0703192 -.00000005 25.073043 31.797666)" gradientUnits="userSpaceOnUse" r="21.166656" xlink:href="#b"/><radialGradient id="d" cx="450.908936" cy="189.579361" gradientTransform="matrix(-.00000009 .0390662 .0703192 .00000005 -9.196524 -3.76374)" gradientUnits="userSpaceOnUse" r="21.166656" xlink:href="#b"/><radialGradient id="e" cx="450.908936" cy="189.579361" gradientTransform="matrix(-.00000009 -.0390662 .0703192 -.00000005 -9.196524 31.797666)" gradientUnits="userSpaceOnUse" r="21.166656" xlink:href="#b"/><radialGradient id="f" cx="450.908936" cy="189.579361" gradientTransform="matrix(.00000009 .0390662 -.0703192 .00000005 25.073042 -3.76374)" gradientUnits="userSpaceOnUse" r="21.166656" xlink:href="#b"/><linearGradient id="g" gradientTransform="matrix(.0376748 0 0 .108706 -2.927007 16.820674)" gradientUnits="userSpaceOnUse" x1="323.513245" x2="323.513245" y1="-141.414581" y2="-25.791676"><stop offset="0" stop-color="#8d6e63"/><stop offset="1" stop-color="#795548"/></linearGradient><linearGradient id="h" gradientUnits="userSpaceOnUse" x1="254" x2="254" y1="212.333328" y2="-115.75"><stop offset="0" stop-color="#e0e0e0"/><stop offset="1" stop-color="#eee"/></linearGradient><linearGradient id="i" gradientUnits="userSpaceOnUse" x1="7.9382592" x2="7.9382592" y1="14.01696600048" y2="1.44805535241"><stop offset="0" stop-color="#424242"/><stop offset="1" stop-color="#616161"/></linearGradient><path d="m3.96875 14.015625h7.9375v.664063h-7.9375zm0 0" fill="url(#a)"/><path d="m11.90625 14.015625h1.324219v-.660156h-1.324219zm0 0" fill="url(#c)"/><path d="m3.96875 14.015625h-1.324219v.664063h1.324219zm0 0" fill="url(#d)"/><path d="m3.96875 14.015625h-1.324219v-.660156h1.324219zm0 0" fill="url(#e)"/><path d="m11.90625 14.015625h1.324219v.664063h-1.324219zm0 0" fill="url(#f)"/><path d="m3.308594 3.101562h9.261718c.363282 0 .660157.296876.660157.660157v9.59375c0 .367187-.296875.660156-.660157.660156h-9.261718c-.367188 0-.664063-.292969-.664063-.660156v-9.59375c0-.363281.296875-.660157.664063-.660157zm0 0" fill="url(#g)"/><path d="m3.308594 3.148438c-.367188 0-.664063.292968-.664063.660156v.082031c0-.363281.296875-.660156.664063-.660156h9.261718c.363282 0 .660157.296875.660157.660156v-.082031c0-.367188-.296875-.660156-.660157-.660156zm0 0" fill="#fff" fill-opacity=".392157"/><path d="m3.308594 13.980469c-.367188 0-.664063-.296875-.664063-.664063v-.082031c0 .367187.296875.664063.664063.664063h9.261718c.363282 0 .660157-.296876.660157-.664063v.082031c0 .367188-.296875.664063-.660157.664063zm0 0" fill-opacity=".196078"/><path d="m105.86489-115.759477h296.346701c11.62389 0 21.122983 9.499093 21.122983 21.122983v306.970686c0 11.748878-9.499093 21.122982-21.122983 21.122982h-296.346701c-11.748878 0-21.247971-9.374104-21.247971-21.122982v-306.970686c0-11.62389 9.499093-21.122983 21.247971-21.122983zm0 0" fill="none" stroke="#212121" stroke-linecap="round" stroke-width="3" transform="matrix(.031253 0 0 .031253 0 6.719392)"/><path d="m126.987873-105.135492h253.975747c5.874439 0 10.623985 4.749547 10.623985 10.498998v296.3467c0 5.874439-4.749546 10.623986-10.623985 10.623986h-253.975747c-5.874439 0-10.623985-4.749547-10.623985-10.623986v-296.3467c0-5.749451 4.749546-10.498998 10.623985-10.498998zm0 0" fill="url(#h)" stroke="#212121" stroke-linecap="round" stroke-linejoin="round" stroke-width="3" transform="matrix(.031253 0 0 .031253 0 6.719392)"/><path d="m5.953125 1.449219c-.183594 0-.332031.144531-.332031.328125v.332031h-.992188c-.179687 0-.328125.148437-.328125.332031v1.320313c0 .183593.148438.332031.328125.332031h6.617188c.183594 0 .332031-.148438.332031-.332031v-1.320313c0-.183594-.148437-.332031-.332031-.332031h-.992188v-.332031c0-.183594-.148437-.328125-.332031-.328125zm0 0" fill="url(#i)"/><path d="m4.300781 3.761719v.332031c0 .183594.148438.332031.328125.332031h6.617188c.183594 0 .332031-.148437.332031-.332031v-.332031c0 .183593-.148437.332031-.332031.332031h-6.617188c-.179687 0-.328125-.148438-.328125-.332031zm0 0" fill-opacity=".235294"/><path d="m5.953125 1.449219c-.183594 0-.332031.144531-.332031.328125v.125c0-.183594.148437-.332032.332031-.332032h3.96875c.183594 0 .332031.148438.332031.332032v-.125c0-.183594-.148437-.328125-.332031-.328125zm-1.324219.660156c-.179687 0-.328125.148437-.328125.332031v.121094c0-.179688.148438-.328125.328125-.328125h.992188v-.125zm5.625 0v.125h.992188c.183594 0 .332031.148437.332031.328125v-.121094c0-.183594-.148437-.332031-.332031-.332031zm0 0" fill="#fff" fill-opacity=".313726"/><path d="m719.931288 175.258863c-22.202605 0-40.153648 17.478647-40.153648 39.681252v40.153648h-119.988548c-21.73021 0-39.681252 17.951043-39.681252 40.153648v159.6698c0 22.202606 17.951042 40.153648 39.681252 40.153648h800.238584c22.202605 0 40.153648-17.951042 40.153648-40.153648v-159.6698c0-22.202605-17.951043-40.153648-40.153648-40.153648h-119.988548v-40.153648c0-22.202605-17.951043-39.681252-40.153648-39.681252zm0 0" fill="none" stroke="#212121" stroke-linecap="round" stroke-linejoin="round" stroke-width="11.338583" transform="scale(.00826902)"/><path d="m3.636719 13.023438v.167968c0 .183594.148437.328125.332031.328125h7.9375c.183594 0 .332031-.144531.332031-.328125v-.167968c0 .183593-.148437.332031-.332031.332031h-7.9375c-.183594 0-.332031-.148438-.332031-.332031zm0 0" fill-opacity=".235294"/><g fill="#78909c"><path d="m6.285156 5.085938h4.960938c.183594 0 .332031.148437.332031.332031 0 .183593-.148437.328125-.332031.328125h-4.960938c-.183594 0-.332031-.144532-.332031-.328125 0-.183594.148437-.332031.332031-.332031zm0 0"/><path d="m6.285156 7.070312h4.960938c.183594 0 .332031.148438.332031.332032s-.148437.332031-.332031.332031h-4.960938c-.183594 0-.332031-.148437-.332031-.332031s.148437-.332032.332031-.332032zm0 0"/><path d="m6.285156 9.054688h4.960938c.183594 0 .332031.148437.332031.332031 0 .183593-.148437.332031-.332031.332031h-4.960938c-.183594 0-.332031-.148438-.332031-.332031 0-.183594.148437-.332031.332031-.332031zm0 0"/><path d="m6.285156 11.039062h4.960938c.183594 0 .332031.136719.332031.308594v.046875c0 .171875-.148437.308594-.332031.308594h-4.960938c-.183594 0-.332031-.136719-.332031-.308594v-.046875c0-.171875.148437-.308594.332031-.308594zm0 0"/><path d="m4.960938 6.738281c-.367188 0-.660157.296875-.660157.664063 0 .367187.292969.660156.660157.660156.367187 0 .660156-.292969.660156-.660156 0-.367188-.292969-.664063-.660156-.664063zm0 .332031c.183593 0 .332031.148438.332031.332032s-.148438.332031-.332031.332031c-.183594 0-.332032-.148437-.332032-.332031s.148438-.332032.332032-.332032zm0 0"/><path d="m4.960938 8.726562c-.367188 0-.660157.292969-.660157.660157 0 .367187.292969.660156.660157.660156.367187 0 .660156-.292969.660156-.660156 0-.367188-.292969-.660157-.660156-.660157zm0 .328126c.183593 0 .332031.148437.332031.332031 0 .183593-.148438.332031-.332031.332031-.183594 0-.332032-.148438-.332032-.332031 0-.183594.148438-.332031.332032-.332031zm0 0"/><path d="m4.960938 10.710938c-.367188 0-.660157.292968-.660157.660156 0 .367187.292969.660156.660157.660156.367187 0 .660156-.292969.660156-.660156 0-.367188-.292969-.660156-.660156-.660156zm0 .328124c.183593 0 .332031.148438.332031.332032s-.148438.332031-.332031.332031c-.183594 0-.332032-.148437-.332032-.332031s.148438-.332032.332032-.332032zm0 0"/><path d="m4.960938 4.753906c-.367188 0-.660157.296875-.660157.664063 0 .367187.292969.660156.660157.660156.367187 0 .660156-.292969.660156-.660156 0-.367188-.292969-.664063-.660156-.664063zm0 .332032c.183593 0 .332031.148437.332031.332031 0 .183593-.148438.328125-.332031.328125-.183594 0-.332032-.144532-.332032-.328125 0-.183594.148438-.332031.332032-.332031zm0 0"/></g><path d="m137.611859-57.515039 21.122983 21.122983 26.497469-31.746969" fill="none" stroke="#f44336" stroke-linecap="round" stroke-linejoin="round" stroke-width="12" transform="matrix(.031253 0 0 .031253 0 6.719392)"/><path d="m137.611859 5.978898 21.122983 21.122982 26.497469-31.746968" fill="none" stroke="#f44336" stroke-linecap="round" stroke-linejoin="round" stroke-width="12" transform="matrix(.031253 0 0 .031253 0 6.719392)"/></svg>

<?xml version="1.0" encoding="UTF-8"?>
<svg xmlns="http://www.w3.org/2000/svg" xmlns:xlink="http://www.w3.org/1999/xlink" width="16px" height="16px" viewBox="0 0 16 16" version="1.1">
<defs>
<linearGradient id="linear0" gradientUnits="userSpaceOnUse" x1="254" y1="233.5" x2="254" y2="254.666672" gradientTransform="matrix(0.031253,0,0,0.031253,-0.00000190753,6.719393)">
<stop offset="0" style="stop-color:rgb(0%,0%,0%);stop-opacity:0.27451;"/>
<stop offset="1" style="stop-color:rgb(0%,0%,0%);stop-opacity:0;"/>
</linearGradient>
<radialGradient id="radial0" gradientUnits="userSpaceOnUse" cx="450.908936" cy="189.579361" fx="450.908936" fy="189.579361" r="21.166656" gradientTransform="matrix(0.0000000870852,-0.0390662,-0.0703192,-0.0000000507693,25.073043,31.797666)">
<stop offset="0" style="stop-color:rgb(0%,0%,0%);stop-opacity:0.313726;"/>
<stop offset="0.222222" style="stop-color:rgb(0%,0%,0%);stop-opacity:0.27451;"/>
<stop offset="1" style="stop-color:rgb(0%,0%,0%);stop-opacity:0;"/>
</radialGradient>
<radialGradient id="radial1" gradientUnits="userSpaceOnUse" cx="450.908936" cy="189.579361" fx="450.908936" fy="189.579361" r="21.166656" gradientTransform="matrix(-0.0000000870852,0.0390662,0.0703192,0.0000000507693,-9.196524,-3.76374)">
<stop offset="0" style="stop-color:rgb(0%,0%,0%);stop-opacity:0.313726;"/>
<stop offset="0.222222" style="stop-color:rgb(0%,0%,0%);stop-opacity:0.27451;"/>
<stop offset="1" style="stop-color:rgb(0%,0%,0%);stop-opacity:0;"/>
</radialGradient>
<radialGradient id="radial2" gradientUnits="userSpaceOnUse" cx="450.908936" cy="189.579361" fx="450.908936" fy="189.579361" r="21.166656" gradientTransform="matrix(-0.0000000870852,-0.0390662,0.0703192,-0.0000000507693,-9.196524,31.797666)">
<stop offset="0" style="stop-color:rgb(0%,0%,0%);stop-opacity:0.313726;"/>
<stop offset="0.222222" style="stop-color:rgb(0%,0%,0%);stop-opacity:0.27451;"/>
<stop offset="1" style="stop-color:rgb(0%,0%,0%);stop-opacity:0;"/>
</radialGradient>
<radialGradient id="radial3" gradientUnits="userSpaceOnUse" cx="450.908936" cy="189.579361" fx="450.908936" fy="189.579361" r="21.166656" gradientTransform="matrix(0.0000000870852,0.0390662,-0.0703192,0.0000000507693,25.073042,-3.76374)">
<stop offset="0" style="stop-color:rgb(0%,0%,0%);stop-opacity:0.313726;"/>
<stop offset="0.222222" style="stop-color:rgb(0%,0%,0%);stop-opacity:0.27451;"/>
<stop offset="1" style="stop-color:rgb(0%,0%,0%);stop-opacity:0;"/>
</radialGradient>
<linearGradient id="linear1" gradientUnits="userSpaceOnUse" x1="323.513245" y1="-141.414581" x2="323.513245" y2="-25.791676" gradientTransform="matrix(0.0376748,0,0,0.108706,-2.927007,16.820674)">
<stop offset="0" style="stop-color:rgb(55.29412%,43.137255%,38.82353%);stop-opacity:1;"/>
<stop offset="1" style="stop-color:rgb(47.450981%,33.333334%,28.235295%);stop-opacity:1;"/>
</linearGradient>
<linearGradient id="linear2" gradientUnits="userSpaceOnUse" x1="254" y1="212.333328" x2="254" y2="-115.75" >
<stop offset="0" style="stop-color:rgb(87.843138%,87.843138%,87.843138%);stop-opacity:1;"/>
<stop offset="1" style="stop-color:rgb(93.333334%,93.333334%,93.333334%);stop-opacity:1;"/>
</linearGradient>
<linearGradient id="linear3" gradientUnits="userSpaceOnUse" x1="960" y1="1695.118164" x2="960" y2="175.118134" gradientTransform="matrix(0.00826902,0,0,0.00826902,0,0)">
<stop offset="0" style="stop-color:rgb(25.882354%,25.882354%,25.882354%);stop-opacity:1;"/>
<stop offset="1" style="stop-color:rgb(38.039216%,38.039216%,38.039216%);stop-opacity:1;"/>
</linearGradient>
</defs>
<g id="surface1">
<path style=" stroke:none;fill-rule:nonzero;fill:url(#linear0);" d="M 3.96875 14.015625 L 11.90625 14.015625 L 11.90625 14.679688 L 3.96875 14.679688 Z M 3.96875 14.015625 "/>
<path style=" stroke:none;fill-rule:nonzero;fill:url(#radial0);" d="M 11.90625 14.015625 L 13.230469 14.015625 L 13.230469 13.355469 L 11.90625 13.355469 Z M 11.90625 14.015625 "/>
<path style=" stroke:none;fill-rule:nonzero;fill:url(#radial1);" d="M 3.96875 14.015625 L 2.644531 14.015625 L 2.644531 14.679688 L 3.96875 14.679688 Z M 3.96875 14.015625 "/>
<path style=" stroke:none;fill-rule:nonzero;fill:url(#radial2);" d="M 3.96875 14.015625 L 2.644531 14.015625 L 2.644531 13.355469 L 3.96875 13.355469 Z M 3.96875 14.015625 "/>
<path style=" stroke:none;fill-rule:nonzero;fill:url(#radial3);" d="M 11.90625 14.015625 L 13.230469 14.015625 L 13.230469 14.679688 L 11.90625 14.679688 Z M 11.90625 14.015625 "/>
<path style=" stroke:none;fill-rule:nonzero;fill:url(#linear1);" d="M 3.308594 3.101562 L 12.570312 3.101562 C 12.933594 3.101562 13.230469 3.398438 13.230469 3.761719 L 13.230469 13.355469 C 13.230469 13.722656 12.933594 14.015625 12.570312 14.015625 L 3.308594 14.015625 C 2.941406 14.015625 2.644531 13.722656 2.644531 13.355469 L 2.644531 3.761719 C 2.644531 3.398438 2.941406 3.101562 3.308594 3.101562 Z M 3.308594 3.101562 "/>
<path style=" stroke:none;fill-rule:nonzero;fill:rgb(100%,100%,100%);fill-opacity:0.392157;" d="M 3.308594 3.148438 C 2.941406 3.148438 2.644531 3.441406 2.644531 3.808594 L 2.644531 3.890625 C 2.644531 3.527344 2.941406 3.230469 3.308594 3.230469 L 12.570312 3.230469 C 12.933594 3.230469 13.230469 3.527344 13.230469 3.890625 L 13.230469 3.808594 C 13.230469 3.441406 12.933594 3.148438 12.570312 3.148438 Z M 3.308594 3.148438 "/>
<path style=" stroke:none;fill-rule:nonzero;fill:rgb(0%,0%,0%);fill-opacity:0.196078;" d="M 3.308594 13.980469 C 2.941406 13.980469 2.644531 13.683594 2.644531 13.316406 L 2.644531 13.234375 C 2.644531 13.601562 2.941406 13.898438 3.308594 13.898438 L 12.570312 13.898438 C 12.933594 13.898438 13.230469 13.601562 13.230469 13.234375 L 13.230469 13.316406 C 13.230469 13.683594 12.933594 13.980469 12.570312 13.980469 Z M 3.308594 13.980469 "/>
<path style="fill:none;stroke-width:3;stroke-linecap:round;stroke-linejoin:miter;stroke:rgb(12.941177%,12.941177%,12.941177%);stroke-opacity:1;stroke-miterlimit:4;" d="M 105.86489 -115.759477 L 402.211591 -115.759477 C 413.835481 -115.759477 423.334574 -106.260384 423.334574 -94.636494 L 423.334574 212.334192 C 423.334574 224.08307 413.835481 233.457174 402.211591 233.457174 L 105.86489 233.457174 C 94.116012 233.457174 84.616919 224.08307 84.616919 212.334192 L 84.616919 -94.636494 C 84.616919 -106.260384 94.116012 -115.759477 105.86489 -115.759477 Z M 105.86489 -115.759477 " transform="matrix(0.031253,0,0,0.031253,0,6.719392)"/>
<path style="fill-rule:nonzero;fill:url(#linear2);stroke-width:3;stroke-linecap:round;stroke-linejoin:round;stroke:rgb(12.941177%,12.941177%,12.941177%);stroke-opacity:1;stroke-miterlimit:4;" d="M 126.987873 -105.135492 L 380.96362 -105.135492 C 386.838059 -105.135492 391.587605 -100.385945 391.587605 -94.636494 L 391.587605 201.710206 C 391.587605 207.584645 386.838059 212.334192 380.96362 212.334192 L 126.987873 212.334192 C 121.113434 212.334192 116.363888 207.584645 116.363888 201.710206 L 116.363888 -94.636494 C 116.363888 -100.385945 121.113434 -105.135492 126.987873 -105.135492 Z M 126.987873 -105.135492 " transform="matrix(0.031253,0,0,0.031253,0,6.719392)"/>
<path style=" stroke:none;fill-rule:nonzero;fill:url(#linear3);" d="M 5.953125 1.449219 C 5.769531 1.449219 5.621094 1.59375 5.621094 1.777344 L 5.621094 2.109375 L 4.628906 2.109375 C 4.449219 2.109375 4.300781 2.257812 4.300781 2.441406 L 4.300781 3.761719 C 4.300781 3.945312 4.449219 4.09375 4.628906 4.09375 L 11.246094 4.09375 C 11.429688 4.09375 11.578125 3.945312 11.578125 3.761719 L 11.578125 2.441406 C 11.578125 2.257812 11.429688 2.109375 11.246094 2.109375 L 10.253906 2.109375 L 10.253906 1.777344 C 10.253906 1.59375 10.105469 1.449219 9.921875 1.449219 Z M 5.953125 1.449219 "/>
<path style=" stroke:none;fill-rule:nonzero;fill:rgb(0%,0%,0%);fill-opacity:0.235294;" d="M 4.300781 3.761719 L 4.300781 4.09375 C 4.300781 4.277344 4.449219 4.425781 4.628906 4.425781 L 11.246094 4.425781 C 11.429688 4.425781 11.578125 4.277344 11.578125 4.09375 L 11.578125 3.761719 C 11.578125 3.945312 11.429688 4.09375 11.246094 4.09375 L 4.628906 4.09375 C 4.449219 4.09375 4.300781 3.945312 4.300781 3.761719 Z M 4.300781 3.761719 "/>
<path style=" stroke:none;fill-rule:nonzero;fill:rgb(100%,100%,100%);fill-opacity:0.313726;" d="M 5.953125 1.449219 C 5.769531 1.449219 5.621094 1.59375 5.621094 1.777344 L 5.621094 1.902344 C 5.621094 1.71875 5.769531 1.570312 5.953125 1.570312 L 9.921875 1.570312 C 10.105469 1.570312 10.253906 1.71875 10.253906 1.902344 L 10.253906 1.777344 C 10.253906 1.59375 10.105469 1.449219 9.921875 1.449219 Z M 4.628906 2.109375 C 4.449219 2.109375 4.300781 2.257812 4.300781 2.441406 L 4.300781 2.5625 C 4.300781 2.382812 4.449219 2.234375 4.628906 2.234375 L 5.621094 2.234375 L 5.621094 2.109375 Z M 10.253906 2.109375 L 10.253906 2.234375 L 11.246094 2.234375 C 11.429688 2.234375 11.578125 2.382812 11.578125 2.5625 L 11.578125 2.441406 C 11.578125 2.257812 11.429688 2.109375 11.246094 2.109375 Z M 10.253906 2.109375 "/>
<path style="fill:none;stroke-width:11.338583;stroke-linecap:round;stroke-linejoin:round;stroke:rgb(12.941177%,12.941177%,12.941177%);stroke-opacity:1;stroke-miterlimit:4;" d="M 719.931288 175.258863 C 697.728683 175.258863 679.77764 192.73751 679.77764 214.940115 L 679.77764 255.093763 L 559.789092 255.093763 C 538.058882 255.093763 520.10784 273.044806 520.10784 295.247411 L 520.10784 454.917211 C 520.10784 477.119817 538.058882 495.070859 559.789092 495.070859 L 1360.027676 495.070859 C 1382.230281 495.070859 1400.181324 477.119817 1400.181324 454.917211 L 1400.181324 295.247411 C 1400.181324 273.044806 1382.230281 255.093763 1360.027676 255.093763 L 1240.039128 255.093763 L 1240.039128 214.940115 C 1240.039128 192.73751 1222.088085 175.258863 1199.88548 175.258863 Z M 719.931288 175.258863 " transform="matrix(0.00826902,0,0,0.00826902,0,0)"/>
<path style=" stroke:none;fill-rule:nonzero;fill:rgb(0%,0%,0%);fill-opacity:0.235294;" d="M 3.636719 13.023438 L 3.636719 13.191406 C 3.636719 13.375 3.785156 13.519531 3.96875 13.519531 L 11.90625 13.519531 C 12.089844 13.519531 12.238281 13.375 12.238281 13.191406 L 12.238281 13.023438 C 12.238281 13.207031 12.089844 13.355469 11.90625 13.355469 L 3.96875 13.355469 C 3.785156 13.355469 3.636719 13.207031 3.636719 13.023438 Z M 3.636719 13.023438 "/>
<path style=" stroke:none;fill-rule:nonzero;fill:rgb(47.058824%,56.470591%,61.176473%);fill-opacity:1;" d="M 6.285156 5.085938 L 11.246094 5.085938 C 11.429688 5.085938 11.578125 5.234375 11.578125 5.417969 C 11.578125 5.601562 11.429688 5.746094 11.246094 5.746094 L 6.285156 5.746094 C 6.101562 5.746094 5.953125 5.601562 5.953125 5.417969 C 5.953125 5.234375 6.101562 5.085938 6.285156 5.085938 Z M 6.285156 5.085938 "/>
<path style=" stroke:none;fill-rule:nonzero;fill:rgb(47.058824%,56.470591%,61.176473%);fill-opacity:1;" d="M 6.285156 7.070312 L 11.246094 7.070312 C 11.429688 7.070312 11.578125 7.21875 11.578125 7.402344 C 11.578125 7.585938 11.429688 7.734375 11.246094 7.734375 L 6.285156 7.734375 C 6.101562 7.734375 5.953125 7.585938 5.953125 7.402344 C 5.953125 7.21875 6.101562 7.070312 6.285156 7.070312 Z M 6.285156 7.070312 "/>
<path style=" stroke:none;fill-rule:nonzero;fill:rgb(47.058824%,56.470591%,61.176473%);fill-opacity:1;" d="M 6.285156 9.054688 L 11.246094 9.054688 C 11.429688 9.054688 11.578125 9.203125 11.578125 9.386719 C 11.578125 9.570312 11.429688 9.71875 11.246094 9.71875 L 6.285156 9.71875 C 6.101562 9.71875 5.953125 9.570312 5.953125 9.386719 C 5.953125 9.203125 6.101562 9.054688 6.285156 9.054688 Z M 6.285156 9.054688 "/>
<path style=" stroke:none;fill-rule:nonzero;fill:rgb(47.058824%,56.470591%,61.176473%);fill-opacity:1;" d="M 6.285156 11.039062 L 11.246094 11.039062 C 11.429688 11.039062 11.578125 11.175781 11.578125 11.347656 L 11.578125 11.394531 C 11.578125 11.566406 11.429688 11.703125 11.246094 11.703125 L 6.285156 11.703125 C 6.101562 11.703125 5.953125 11.566406 5.953125 11.394531 L 5.953125 11.347656 C 5.953125 11.175781 6.101562 11.039062 6.285156 11.039062 Z M 6.285156 11.039062 "/>
<path style=" stroke:none;fill-rule:nonzero;fill:rgb(47.058824%,56.470591%,61.176473%);fill-opacity:1;" d="M 4.960938 6.738281 C 4.59375 6.738281 4.300781 7.035156 4.300781 7.402344 C 4.300781 7.769531 4.59375 8.0625 4.960938 8.0625 C 5.328125 8.0625 5.621094 7.769531 5.621094 7.402344 C 5.621094 7.035156 5.328125 6.738281 4.960938 6.738281 Z M 4.960938 7.070312 C 5.144531 7.070312 5.292969 7.21875 5.292969 7.402344 C 5.292969 7.585938 5.144531 7.734375 4.960938 7.734375 C 4.777344 7.734375 4.628906 7.585938 4.628906 7.402344 C 4.628906 7.21875 4.777344 7.070312 4.960938 7.070312 Z M 4.960938 7.070312 "/>
<path style=" stroke:none;fill-rule:nonzero;fill:rgb(47.058824%,56.470591%,61.176473%);fill-opacity:1;" d="M 4.960938 8.726562 C 4.59375 8.726562 4.300781 9.019531 4.300781 9.386719 C 4.300781 9.753906 4.59375 10.046875 4.960938 10.046875 C 5.328125 10.046875 5.621094 9.753906 5.621094 9.386719 C 5.621094 9.019531 5.328125 8.726562 4.960938 8.726562 Z M 4.960938 9.054688 C 5.144531 9.054688 5.292969 9.203125 5.292969 9.386719 C 5.292969 9.570312 5.144531 9.71875 4.960938 9.71875 C 4.777344 9.71875 4.628906 9.570312 4.628906 9.386719 C 4.628906 9.203125 4.777344 9.054688 4.960938 9.054688 Z M 4.960938 9.054688 "/>
<path style=" stroke:none;fill-rule:nonzero;fill:rgb(47.058824%,56.470591%,61.176473%);fill-opacity:1;" d="M 4.960938 10.710938 C 4.59375 10.710938 4.300781 11.003906 4.300781 11.371094 C 4.300781 11.738281 4.59375 12.03125 4.960938 12.03125 C 5.328125 12.03125 5.621094 11.738281 5.621094 11.371094 C 5.621094 11.003906 5.328125 10.710938 4.960938 10.710938 Z M 4.960938 11.039062 C 5.144531 11.039062 5.292969 11.1875 5.292969 11.371094 C 5.292969 11.554688 5.144531 11.703125 4.960938 11.703125 C 4.777344 11.703125 4.628906 11.554688 4.628906 11.371094 C 4.628906 11.1875 4.777344 11.039062 4.960938 11.039062 Z M 4.960938 11.039062 "/>
<path style=" stroke:none;fill-rule:nonzero;fill:rgb(47.058824%,56.470591%,61.176473%);fill-opacity:1;" d="M 4.960938 4.753906 C 4.59375 4.753906 4.300781 5.050781 4.300781 5.417969 C 4.300781 5.785156 4.59375 6.078125 4.960938 6.078125 C 5.328125 6.078125 5.621094 5.785156 5.621094 5.417969 C 5.621094 5.050781 5.328125 4.753906 4.960938 4.753906 Z M 4.960938 5.085938 C 5.144531 5.085938 5.292969 5.234375 5.292969 5.417969 C 5.292969 5.601562 5.144531 5.746094 4.960938 5.746094 C 4.777344 5.746094 4.628906 5.601562 4.628906 5.417969 C 4.628906 5.234375 4.777344 5.085938 4.960938 5.085938 Z M 4.960938 5.085938 "/>
<path style="fill:none;stroke-width:12;stroke-linecap:round;stroke-linejoin:round;stroke:rgb(95.686275%,26.274511%,21.176471%);stroke-opacity:1;stroke-miterlimit:4;" d="M 137.611859 -57.515039 L 158.734842 -36.392056 L 185.232311 -68.139025 " transform="matrix(0.031253,0,0,0.031253,0,6.719392)"/>
<path style="fill:none;stroke-width:12;stroke-linecap:round;stroke-linejoin:round;stroke:rgb(95.686275%,26.274511%,21.176471%);stroke-opacity:1;stroke-miterlimit:4;" d="M 137.611859 5.978898 L 158.734842 27.10188 L 185.232311 -4.645088 " transform="matrix(0.031253,0,0,0.031253,0,6.719392)"/>
</g>
</svg>
